X: 4
T: The Flower Of The Flock
R: reel
M: 4/4
L: 1/8
K: Gmaj
|:DEGA B~G3|cGBG AGEG|DEGD ~G3e|1 dBAD ~G3E:|2 dBAD ~G3e|||~g3 e dGBG|~A3G AGef|~g3 e d2 (3Bcd|eaag agef||~g3 e dGBG|AcBG AGEA|DEGD B2 Be|dBAD ~G3E||


Tune 585	Setting 585

